!!!OTL: Der heimkehrende Soldat
!!!OTL-incipit:Ein Soldat kam aus dem Kriege, hurrah!
!!!ARE: Europa, Mitteleuropa, Deutschland (), Sachsen, Priestewitz
!!!YOR: 5, S. 147
!!    1908 aufgezeichnet
!!!SCT: Q0103
!!!TXL: @@DE
!!!YEM: Copyright 1995, estate of Helmut Schaffrath.
**kern	**text
*ICvox	*
*M4/4	*
*met(c)	*
*k[f#]	*
*G:	*
{8dL	1._Ein
8dJ	Sol-
=1	=1
4g	-dat
4b	kam
4b	aus
4b	dem
=2	=2
(<4b	Krie-
8aL	.
8bJ)	.
4cc	-ge,
4dd	hur-
=3	=3
4b	-rah!
4r	.
4r}	.
{8ddL	'Fünf-
8ccJ	-und-
=4	=4
4b	-ʒwan-
4b	-ʒig
4b	Jahr'
4dd	hab'
=5	=5
4.dd	ich
8cc	ge-
(8ccL	-dient,
8bJ)}	.
{(8ccL	hier
8bJ)	.
=6	=6
8aL	hab'
8a	ich
8a	mei-
8aJ	-nen
4a	Pas
4ee	und
=7	=7
4.ee	Ab-
8dd	-schieds-
4dd}	-brief',
{4cc	hur-
=8	=8
4b	-rah,
4b	hur-
4a	-rah,
4a	hur-
=9	=9
4g	-rah!
4r	.
4r}	.
==	==
!!!AGN: Ballade, Ehe, Betrug
!! Anhaengsel an der ersten Zeile; Vierte Zeile = Refrain.
!!!ONB: ESAC (Essen Associative Code) Database: BALLADE
!!!AMT: simple quadruple
!!!AIN: vox
!!!EED: Helmut Schaffrath
!!!EEV: 1.0
!!@@COMMENT:"A 118 895. Aufgereichnet 1908
!!von Ludwig Steglich in Priestewitʒ/ Sachsen."
!!@@END:
!!!source: Deutsche Volkslieder mit ihren Melodien Balladen. Herausgegeben vom Deutschen Volksliedarchiv. Fünfter Teil. Freiburg/Breisgau 1965.
!!!page: 147
!!!ENC: Anna Maria Matuszewska
!!!EEV: 2025/03/04
*-	*-
